_site/images/pro/feature-workspaces.svg

<svg height="80" viewBox="0 0 80 80" width="80" xmlns="http://www.w3.org/2000/svg"><g fill="none" fill-rule="evenodd"><path d="m14 11h18l-6.9230769 9.6923077v11.0769231l-4.8461539-3.4615385v-7.6153846z" fill="#9b9b9b" stroke="#000" stroke-linecap="round" stroke-linejoin="round"/><path d="m53 13.7645183c.6036498.2812754 1.6723927.6624611 3.03125.6624611 2.1533203 0 3.2426758-1.1886418 5.3144531-1.1886418 2.0717774 0 3.6914063.9524977 3.6914063.9524977v10.0944637s-1.6240235-1.0070914-3.6914063-1.0070914-3.3000488 1.0070914-5.3144531 1.0884465c-1.2955145.0523216-2.4046217-.4128481-3.03125-.7515263v7.8010873c0 .8267077-.6715729 1.5068618-1.5 1.5068618-.8342028 0-1.5-.674645-1.5-1.5068618v-18.9093532c0-.8267078.6715729-1.5068619 1.5-1.5068619.8342028 0 1.5.674645 1.5 1.5068619z" fill="#f5a623" fill-rule="evenodd"/><path d="m64.5371094 23.4733806v-8.9818229c-.1863527-.0905831-.4356957-.1980422-.7375989-.3063308-.7791612-.2794744-1.6100497-.4468893-2.4538074-.4468893-.7615872 0-1.3025516.1365482-2.3571439.527621-.0476314.0176724-.0476314.0176724-.0954927.035443-1.2414319.4608563-1.8878548.6255778-2.8618165.6255778-1.2234342 0-2.3185603-.2787627-3.2424289-.7092465l-.2888211-.1345785v-1.5762925c0-.5588894-.4447465-1.0068619-1-1.0068619-.5495992 0-1 .4536038-1 1.0068619v18.9093532c0 .5588893.4447465 1.0068618 1 1.0068618.5495992 0 1-.4536038 1-1.0068618v-8.639682l.7377369.3987298c.8363695.4520384 1.7877187.7316044 2.7733362.6917985.7463633-.0301431 1.2691758-.1550294 2.4015376-.5181454.0114336-.0036665.0114336-.0036665.0228765-.0073357 1.3014272-.4173061 1.9526436-.5633727 2.9102159-.5633727.9705769 0 1.9147216.2012318 2.7981439.5359882.1406948.0533137.271998.1067686.3932624.1591848z" stroke="#f5a623"/><g fill-rule="nonzero" transform="matrix(.70710678 .70710678 -.70710678 .70710678 26.849243 43.464466)"><path d="m.29289322 6.89289322c0-2.4 3-6.6 6-6.6s5.99999998 4.2 5.99999998 6.6v14.99987258c0 1.3255538-1.0649199 2.4001274-2.39953796 2.4001274h-7.20092404c-1.32522823 0-2.39953798-1.0680701-2.39953798-2.4001274zm6 1.8c1.3254834 0 2.4-1.0745166 2.4-2.4s-1.0745166-2.4-2.4-2.4-2.4 1.0745166-2.4 2.4 1.0745166 2.4 2.4 2.4z" fill="#3488c8" fill-rule="evenodd"/><path d="m.79289322 6.89289322v14.99987258c0 1.0534864.84802028 1.9001274 1.89953798 1.9001274h7.20092404c1.05490166 0 1.89953796-.8471335 1.89953796-1.9001274v-14.99987258c0-2.44196671-3.04836106-6.1-5.49999998-6.1-2.45163893 0-5.5 3.65803329-5.5 6.1zm5.5 2.3c-1.60162578 0-2.9-1.29837423-2.9-2.9 0-1.60162578 1.29837422-2.9 2.9-2.9 1.60162577 0 2.9 1.29837422 2.9 2.9 0 1.60162577-1.29837423 2.9-2.9 2.9z" stroke="#3488c8"/></g><g fill="#9b9b9b"><rect height="2.907853" rx="1.453926" width="18.901042" x="46" y="49"/><rect height="2.907853" rx="1.453926" width="18.901042" x="46" y="56.269631"/><rect height="2.907853" rx="1.453926" width="18.901042" x="46" y="63.539263"/></g></g></svg>

<?xml version="1.0" encoding="UTF-8"?>
<svg width="80px" height="80px" viewBox="0 0 80 80" version="1.1" xmlns="http://www.w3.org/2000/svg" xmlns:xlink="http://www.w3.org/1999/xlink">
    <!-- Generator: Sketch 49 (51002) - http://www.bohemiancoding.com/sketch -->
    <title>feature-workspaces</title>
    <desc>Created with Sketch.</desc>
    <defs>
        <path d="M53,13.7645183 C53.6036498,14.0457937 54.6723927,14.4269794 56.03125,14.4269794 C58.1845703,14.4269794 59.2739258,13.2383376 61.3457031,13.2383376 C63.4174805,13.2383376 65.0371094,14.1908353 65.0371094,14.1908353 L65.0371094,24.285299 C65.0371094,24.285299 63.4130859,23.2782076 61.3457031,23.2782076 C59.2783203,23.2782076 58.0456543,24.285299 56.03125,24.3666541 C54.7357355,24.4189757 53.6266283,23.953806 53,23.6151278 L53,31.4162151 C53,32.2429228 52.3284271,32.9230769 51.5,32.9230769 C50.6657972,32.9230769 50,32.2484319 50,31.4162151 L50,12.5068619 C50,11.6801541 50.6715729,11 51.5,11 C52.3342028,11 53,11.674645 53,12.5068619 L53,13.7645183 Z" id="path-1"></path>
        <path d="M0.292893219,6.89289322 C0.292893219,4.49289322 3.29289322,0.292893219 6.29289322,0.292893219 C9.29289322,0.292893219 12.2928932,4.49289322 12.2928932,6.89289322 L12.2928932,21.8927658 C12.2928932,23.2183196 11.2279733,24.2928932 9.89335524,24.2928932 L2.6924312,24.2928932 C1.36720297,24.2928932 0.292893219,23.2248231 0.292893219,21.8927658 L0.292893219,6.89289322 Z M6.29289322,8.69289322 C7.61837662,8.69289322 8.69289322,7.61837662 8.69289322,6.29289322 C8.69289322,4.96740982 7.61837662,3.89289322 6.29289322,3.89289322 C4.96740982,3.89289322 3.89289322,4.96740982 3.89289322,6.29289322 C3.89289322,7.61837662 4.96740982,8.69289322 6.29289322,8.69289322 Z" id="path-2"></path>
    </defs>
    <g id="feature-workspaces" stroke="none" stroke-width="1" fill="none" fill-rule="evenodd">
        <polygon id="Path-11" stroke="#000000" fill="#9B9B9B" stroke-linecap="round" stroke-linejoin="round" points="14 11 32 11 25.0769231 20.6923077 25.0769231 31.7692308 20.2307692 28.3076923 20.2307692 20.6923077"></polygon>
        <g id="Rectangle-23">
            <use fill="#F5A623" fill-rule="evenodd" xlink:href="#path-1"></use>
            <path stroke="#F5A623" stroke-width="1" d="M64.5371094,23.4733806 L64.5371094,14.4915577 C64.3507567,14.4009746 64.1014137,14.2935155 63.7995105,14.1852269 C63.0203493,13.9057525 62.1894608,13.7383376 61.3457031,13.7383376 C60.5841159,13.7383376 60.0431515,13.8748858 58.9885592,14.2659586 C58.9409278,14.283631 58.9409278,14.283631 58.8930665,14.3014016 C57.6516346,14.7622579 57.0052117,14.9269794 56.03125,14.9269794 C54.8078158,14.9269794 53.7126897,14.6482167 52.7888211,14.2177329 L52.5,14.0831544 L52.5,12.5068619 C52.5,11.9479725 52.0552535,11.5 51.5,11.5 C50.9504008,11.5 50.5,11.9536038 50.5,12.5068619 L50.5,31.4162151 C50.5,31.9751044 50.9447465,32.4230769 51.5,32.4230769 C52.0495992,32.4230769 52.5,31.9694731 52.5,31.4162151 L52.5,22.7765331 L53.2377369,23.1752629 C54.0741064,23.6273013 55.0254556,23.9068673 56.0110731,23.8670614 C56.7574364,23.8369183 57.2802489,23.712032 58.4126107,23.348916 C58.4240443,23.3452495 58.4240443,23.3452495 58.4354872,23.3415803 C59.7369144,22.9242742 60.3881308,22.7782076 61.3457031,22.7782076 C62.31628,22.7782076 63.2604247,22.9794394 64.143847,23.3141958 C64.2845418,23.3675095 64.415845,23.4209644 64.5371094,23.4733806 Z"></path>
        </g>
        <g id="Group" transform="translate(22.606602, 56.899495) rotate(-315.000000) translate(-22.606602, -56.899495) translate(16.106602, 44.399495)" fill-rule="nonzero">
            <g id="Combined-Shape">
                <use fill="#3488C8" fill-rule="evenodd" xlink:href="#path-2"></use>
                <path stroke="#3488C8" stroke-width="1" d="M0.792893219,6.89289322 L0.792893219,21.8927658 C0.792893219,22.9462522 1.6409135,23.7928932 2.6924312,23.7928932 L9.89335524,23.7928932 C10.9482569,23.7928932 11.7928932,22.9457597 11.7928932,21.8927658 L11.7928932,6.89289322 C11.7928932,4.45092651 8.74453214,0.792893219 6.29289322,0.792893219 C3.84125429,0.792893219 0.792893219,4.45092651 0.792893219,6.89289322 Z M6.29289322,9.19289322 C4.69126744,9.19289322 3.39289322,7.89451899 3.39289322,6.29289322 C3.39289322,4.69126744 4.69126744,3.39289322 6.29289322,3.39289322 C7.89451899,3.39289322 9.19289322,4.69126744 9.19289322,6.29289322 C9.19289322,7.89451899 7.89451899,9.19289322 6.29289322,9.19289322 Z"></path>
            </g>
        </g>
        <g id="Group" transform="translate(46.000000, 49.000000)" fill="#9B9B9B">
            <rect id="Rectangle-5" x="0" y="0" width="18.9010417" height="2.90785256" rx="1.45392628"></rect>
            <rect id="Rectangle-5" x="0" y="7.26963141" width="18.9010417" height="2.90785256" rx="1.45392628"></rect>
            <rect id="Rectangle-5" x="0" y="14.5392628" width="18.9010417" height="2.90785256" rx="1.45392628"></rect>
        </g>
    </g>
</svg>
